svg/arrow_u_up_left_bold.svg

<svg xmlns="http://www.w3.org/2000/svg" viewBox="0 0 24 24"><path d="M13.5 21C9.36 21 6 17.64 6 13.5V11H2l6-7 6 7h-4v2.5c0 1.93 1.57 3.5 3.5 3.5s3.5-1.57 3.5-3.5V6h4v7.5c0 4.14-3.36 7.5-7.5 7.5"/></svg>

<svg xmlns="http://www.w3.org/2000/svg" id="mdi-arrow-u-up-left-bold" viewBox="0 0 24 24"><path d="M13.5 21C9.36 21 6 17.64 6 13.5V11H2L8 4L14 11H10V13.5C10 15.43 11.57 17 13.5 17S17 15.43 17 13.5V6H21V13.5C21 17.64 17.64 21 13.5 21Z" /></svg>
